core/assets/icons/finances.svg

<svg xmlns="http://www.w3.org/2000/svg" width="24" height="24" fill="none"><g fill="#191C22"><path d="M17 16h2V4H9v2h7a1 1 0 0 1 1 1v9Zm0 2v3c0 .6-.5 1-1 1H4c-.6 0-1-.4-1-1V7c0-.6.5-1 1-1h3V3c0-.6.4-1 1-1h12c.6 0 1 .4 1 1v14c0 .6-.4 1-1 1h-3ZM5 8v12h10V8H5Z"/><path fill-rule="evenodd" d="M7 13V9h4a3 3 0 1 1 0 6H9v1h4v2H9v1H7v-1H6v-2h1v-1H6v-2h1Zm2 0h2a1 1 0 1 0 0-2H9v2Z" clip-rule="evenodd"/></g></svg>

<svg width="24" height="24" viewBox="0 0 24 24" xmlns="http://www.w3.org/2000/svg"><g id="finances"><path id="Vector" d="M17 16H19V4H9V6H16C16.5523 6 17 6.44772 17 7V16ZM17 18V21C17 21.6 16.5 22 16 22H4C3.4 22 3 21.6 3 21V7C3 6.4 3.5 6 4 6H7V3C7 2.4 7.4 2 8 2H20C20.6 2 21 2.4 21 3V17C21 17.6 20.6 18 20 18H17ZM5 8V20H15V8H5Z"/><path id="Vector_2" fill-rule="evenodd" clip-rule="evenodd" d="M7 13V9H11C12.6569 9 14 10.3431 14 12C14 13.6569 12.6569 15 11 15H9V16H13V18H9V19H7V18H6V16H7V15H6V13H7ZM9 13H11C11.5523 13 12 12.5523 12 12C12 11.4477 11.5523 11 11 11H9V13Z"/></g></svg>
